X:1
T:Regina cæli lætare
T:William Byrd (c.1540-1623)
T:4.pars
T:Regina cæli lætare
T:© Choral Public Domain Library 2010
T:© Choral Public Domain Library 2010
T:© Choral Public Domain Library 2010
T:© Choral Public Domain Library 2010
T:© Choral Public Domain Library 2010
T:© Choral Public Domain Library 2010
T:© Choral Public Domain Library 2010
C:William Byrd (c.1540-1623)
Z:4.pars
Z:© Choral Public Domain Library 2010
%%score [ 1 2 3 ]
L:1/8
M:4/4
K:F
V:1 treble nm="Soprano" snm="S."
V:2 treble nm="Alto" snm="A."
V:3 treble-8 transpose=-12 nm="Tenor" snm="T."
V:1
 [Cf]2 |[M:4/2] D8 G8 | F8 B6 AG | F2 G2 A2 B2 c2 A2 B4 | A8 D8 | F4 C4 z4 B4 | %6
w: |Re- gi-|na cæ- * *||li, læ-|ta- re, læ-|
 A3 B c2 BA G2 A2 F2 G2 | E8 F8 | B8 A8 | d8 d8 | z4 D4 F3 E F2 G2 | A2 G2 G6 ^FE F2 G2 | %12
w: ta- * * * * * * * *|re, Re-|gi- na|cæ- li|læ- ta- * * *||
 A8 z4 A4 | c3 =B c2 d2 e2 d2 d4- | d2 ^c=B c4 d8 | A12 A4 | c8 C8 | A6 =B2 c2 G2 c2 B2 | %18
w: re, læ-|ta- * * * * * *|* * * * re.|Al- le-|lu- ia.|Al- le- lu- * * *|
 A2 GF E4 z4 d4- | d2 e2 f2 d2 f2 e2 d2 cB | A8 z8 | F6 G2 A2 E2 A2 G2 | F2 ED ^C4 A8 | %23
w: * * * ia. Al-|* le- lu- * * * * * *|ia.|Al- le- lu- * * *|* * * ia. Al-|
 G4 c8 =B2 A2 | G6 ^FE | !fermata!^F16 || z16 | z8 z4 F4- | F2 C2 E4 D4 C4 | A8 D8 | z4 A6 E2 A4 | %31
w: le- lu- * *||ia.||Qui-|* a quem me- ru-|i- sti,|qui- a quem|
 G4 F4 B8 | A16 | z4 A6 G2 c4 | B4 A4 d8 | c8 z8 | z4 E4 A8 | G8 z8 | z4 D4 B8 | A4 c6 B2 A2 G2 | %40
w: me- ru- i-|sti,|qui- a quem|me- ru- i-|sti|por- ta-|re,|por- ta-|re. Al- le- lu- *|
 F2 G2 A4 G8 | z4 A6 G2 F2 E2 | D2 E2 F4 C8 | z8 z4 c4- | c2 B2 A2 G2 F2 G2 A4 | D8 z4 d4- | %46
w: * * * ia.|Al- le- lu- *|* * * ia.|Al-|* le- lu- * * * *|ia. Al-|
 d2 c2 B2 A2 G2 A2 B4- | B2 A2 G2 F2 E2 F2 D4 | A8 z4 f4- | f2 e2 d2 c2 B2 c2 d4- | d2 c2 c8 =B4 | %51
w: * le- lu- * * * *||ia. Al-|* le- lu- * * * *||
 c8 z4 c4- | c2 B2 A2 G2 ^F2 G2 A4- | A2 G2 G8 ^F4 | !fermata!G16 || D8 G4 d4- | d4 A4 B6 A2 | %57
w: ia. Al-|* le- lu- * * * *||ia.|Re- sur- re-|* xit si- cut|
 A8 D8 | B6 A2 B2 c2 d4- | d4 c4 B4 A4- | A2 GF G4 A8 | z4 G4 A4 c4- | c4 G4 B6 A2 | G2 F2 G4 F8 | %64
w: di- xit,|si- cut di- * *||* * * * xit,|re- sur- re-|* xit si- cut|di- * * xit,|
 c4 d4 f8 | c4 e6 d2 d4- | d2 c2 c8 =B4 | c8 z8 | z4 A2 B2 c2 A2 c4- | c4 B4 A4 A4- | %70
w: re- sur- re-|xit si- cut di-||xit.|Al- le- lu- * *|* * ia. Al-|
 A4 G4 ^F4 G4- | G4 ^F4 G4 B2 c2 | d2 B2 d8 c4 | B8 A8- | A4 d4 c8 | z4 d2 e2 f2 d2 f4- | %76
w: * le- lu- *|* * ia. Al- le-|lu- * * *||* * ia.|Al- le- lu- * *|
 f4 e2 d2 e2 c2 e4- | e4 d2 c2 d8- | d8 z4 A2 B2 | c2 A2 d4- | d4 ^c2 =B2 !fermata!c8 || d8 c4 c4 | %82
w: |* * * ia.|_ Al- le-|lu- * *|* * * ia.|O- ra pro|
 d8 A4 c2 d2 | B4 A4 z2 G2 B2 c2 | d4 D2 d4 ^c=B c4 | d4 z2 c4 =BA B4 | c4 A4 G4 G4 | A4 F4 E8 | %88
w: no- bis De- *|* um, o- ra pro|no- bis De- * * *|um, De- * * *|um, o- ra pro|no- bis De-|
 D4 z2 D2 F4 G4 | A4 D2 d4 ^c=B c4 | d2 D2 F2 G2 A4 D2 G2- | G2 FE F3 E DC F4 E2 | F4 z2 A2 c4 d4 | %93
w: um, o- ra pro|no- bis De- * * *|um, o- ra pro no- bis De-||um, o- ra pro|
 e4 c2 f4 ed e4 | f8 e8 | d8 ^c8 | z8 z4 c4- | c2 d2 c2 A2 B2 c2 d4 | z8 z2 A4 c2 | %99
w: no- bis De- * * *|um, De-|* um.|Al-|* le- lu- * * * ia.|Al- le-|
 B2 G2 A2 GF E8 | z2 G4 B2 A2 F2 c2 BA | G8 z8 | z2 c4 f2 e2 c2 d2 cB | A8 c6 d2 | e6 f4 ed e4 | %105
w: lu- * * * * ia.|Al- le- lu- * * * *|ia.|Al- le- lu- * * * *|ia. Al- le-|lu- * * * *|
 d4 c4 z2 G4 c2 | B4 G4 A8 | z4 z2 G4 A2 G2 E2 | F2 ED ^C4 z8 | z2 A4 c2 B2 G2 A4- | A4 G2 F2 E8 | %111
w: * ia. Al- le-|lu- * ia.|Al- le- lu- *|* * * ia.|Al- le- lu- * *||
 !fermata!^F16 |] %112
w: ia.|
V:2
 [F,c]2 |[M:4/2] z4 G,8 B,4- | B,4 A,4 G,3 A, B,2 C2 | D2 E2 F2 D2 E2 F2 G4- | G4 ^F4 G4 B4 | %5
w: |Re- gi-|* na cæ- * * *||* * li, læ-|
 A3 B c2 BA G2 F2 D2 E2 | F4 F4 E4 D2 G,2 | A,8 z4 D4- | D4 G8 F4- | F4 B8 A4- | A2 GF G4 A4 A4 | %11
w: ta- * * * * * * * *|re, læ- ta- * *|re, Re-|* gi- na|_ cæ- *|* * * * li læ-|
 c4 B4 A8 | z4 D4 F3 E F2 G2 | A6 GF G6 F2 | E8 D8 | z8 z4 F4- | F2 G2 A2 F2 A2 G2 F2 ED | %17
w: ta- * re,|læ- ta- * * *||* re.|Al-|* le- lu- * * * * * *|
 C4 D4 E6 DE | F2 D4 ^C2 D8 | z8 D6 E2 | F2 D2 F2 E2 D2 CB, A,4- | A,4 D6 C2 F2 E2 | %22
w: |* * * ia.|Al- le-|lu- * * * * * * ia.|_ Al- le- lu- *|
 D4 E4 C2 D2 E2 F2 | E2 G2 F2 E4 DC ED D2- | D2 ^C=B, C4 | !fermata!D16 || D16 | A,8 D8 | C8 F,8 | %29
w: * ia. Al- le- lu- *|||ia.|Qui-|a quem|me- ru-|
 F16 | E8 z8 | z8 z4 D4- | D2 A,2 D4 C4 A,4 | F8 E8 | D4 F8 E2 D2 | E8 F4 A4- | A4 G6 F2 F4- | %37
w: i-|sti,|qui-|* a quem me- ru-|i- sti|por- ta- * *|re, por- ta-||
 F2 E2 C2 D2 E2 F2 G4- | G2 F2 F8 E4 | F4 A6 G2 F2 E2 | D2 E2 F4 E8- | E8 z8 | z4 A6 G2 F2 E2 | %43
w: ||re. Al- le- lu- *|* * * ia.|_|Al- le- lu- *|
 D2 E2 F4 C8- | C8 z4 F4- | F2 E2 D2 C2 B,2 C2 D2 E2 | F8 E4 D4- | D2 C2 B,2 A,2 G,2 A,2 B,4 | %48
w: * * * ia.|_ Al-|* le- lu- * * * * *|* ia. Al-|* le- lu- * * * *|
 F,8 G,4 B,4 | A,8 z4 F4- | F2 E2 D2 C2 D2 E2 F4- | F4 E2 D2 E8 | z4 C6 B,2 A,2 G,2 | %53
w: |ia. Al-|* le- lu- * * * *|* * * ia.|Al- le- lu- *|
 ^F,4 G,4 A,8 | !fermata!=B,16 || z16 | z16 | z8 G,8 | D4 G8 D4 | F6 E2 D6 C2 | B,8 F,8 | %61
w: |ia.|||Re-|sur- re- xit|si- cut di- *|* xit,|
 z4 E4 F4 A4- | A4 E4 G6 F2 | E2 D2 E4 F4 D4 | A4 B8 F4 | A6 G2 G6 F2 | F6 E2 F8 | %67
w: re- sur- re-|* xit si- cut|di- * * xit, re-|sur- re- xit|si- cut di- *|* * xit.|
 z4 E2 F2 G2 E2 G4- | G2 F2 F8 E4 | D8 z4 A,2 B,2 | C2 A,2 C8 B,4 | A,8 G,8 | z4 D2 E2 F2 D2 F4- | %73
w: Al- le- lu- * *||ia. Al- le-|lu- * * *|* ia.|Al- le- lu- * *|
 F4 E4 F8 | z8 z4 G2 A2 | B2 F2 B8 A2 G2 | A8 z4 E2 F2 | G2 E2 G8 F2 E2 | F2 D2 F8 E2 D2 | E4 F4 | %80
w: * * ia.|Al- le-|lu- * * * *|ia. Al- le-|lu- * * * *|||
 !fermata!E16 || z2 D2 F2 G2 A4 E2 F2- | F2 ED G4 F8 | D2 G4 ^F2 G8 | z2 D2 F2 G2 A4 E2 F2- | %85
w: ia.|O- ra pro no- bis De-|* * * * um,|De- * * um,|o- ra pro no- bis De-|
 F2 ED E4 F4 z4 | z2 A,2 C2 D2 E4 =B,2 C2- | C2 =B,A, D6 ^CB, C4 | D8 z8 | F8 E4 E4 | F8 D8 | %91
w: * * * * um,|o- ra pro no- bis De-||um,|o- ra pro|no- bis,|
 z4 D4 F4 G4 | A4 D2 F4 E2 F2 G2- | G2 FE A4 G8 | z2 F2 A2 B2 c4 G2 A2- | A2 GF G4 A4 E4- | %96
w: o- ra pro|no- bis De- * * *|* * * * um,|o- ra pro no- bis De-|* * * * um. Al-|
 E2 F2 E2 C2 D2 CB, A,2 A2- | A2 B2 A2 F2 G2 FE D2 F2- | F2 G2 F2 D2 F2 ED C4 | D4 D4 C8 | %100
w: * le- lu- * * * * ia. Al-|* le- lu- * * * * ia. Al-|* le- lu- * * * * ia.|Al- le- lu-|
 D8 F4 F4 | E6 F2 G2 A2 F2 G2 | A2 A4 A2 G8 | F8 z2 A4 B2 | A2 G2 c2 BA G8 | %105
w: ia. Al- le-|lu- * * * * *|ia. Al- le- lu-|ia. Al- le-|lu- * * * * ia.|
 z2 F4 A2 G2 E2 G2 F2- | F2 ED E4 F8 | C4 C4 C8 | D4 E8 D4 | F4 E2 C2 D2 E2 F2 ED | %110
w: Al- le- lu- * * *|* * * * ia.|Al- le- lu-|ia. Al- le-|lu- * * * * * * *|
 ^C2 D2 E2 D4 C=B, C4 | !fermata!D16 |] %112
w: |ia.|
V:3
 [A,f]2 |[M:4/2] z16 | z16 | z16 | D8 G8 | F8 B6 AG | F2 G2 A2 B2 c2 A2 d4- | d4 ^c4 d8 | %8
w: ||||Re- gi-|na cæ- * *||* * li,|
 z4 G4 d6 c2 | B2 A2 G2 FE D2 E2 F2 D2 | B8 A4 F4- | F4 G4 D4 d4 | f6 e2 d6 cB | A2 G2 F4 c4 G4 | %14
w: læ- ta- *|||* * re, læ-|ta- * * * *||
 A8 z4 d4- | d2 e2 f2 d2 f2 e2 d2 cB | A4 F6 G2 A2 F2 | A2 G2 F2 ED C6 G2 | F2 G2 A4 z2 G4 A2 | %19
w: re. Al-|* le- lu- * * * * * *|ia. Al- le- lu- *||* * ia. Al- le-|
 B2 G2 d6 c2 B2 AG | F4 D6 E2 F2 D2 | F2 E2 D2 CB, A,8 | z4 A6 B2 c2 A2 | c2 B2 A2 GF E2 F2 G2 F2 | %24
w: lu- * * * * * *|ia. Al- le- lu- *|* * * * * ia.|Al- le- lu- *||
 E8 | !fermata!D16 || z4 G6 D2 G4 | F4 D4 B8 | A8 z8 | z4 d6 D2 d4 | c4 A4 c8 | B4 A4 G8 | %32
w: |ia.|Qui- a quem|me- ru- i-|sti,|qui- a quem|me- ru- i-|sti por- ta-|
 F4 D4 F6 E2 | D8 C8 | z4 F4 B8 | A4 A4 d8 | c12 F4 | c6 B2 A4 G4 | A4 B4 G8 | F16 | z8 z4 c4- | %41
w: re, por- ta- *|* re,|por- ta-|re, por- ta-|re, por-|ta- * * *||re,|Al-|
 c2 B2 A2 G2 F2 G2 A4 | F16 | B6 B2 A6 G2 | F6 E2 D4 d4- | d2 c2 B2 A2 G2 A2 B4- | B2 A2 G2 F2 G8 | %47
w: * le- lu- * * * *|ia.|Al- le- lu- *|* * ia. Al-|* le- lu- * * * *||
 F8 z4 f4- | f2 e2 d2 c2 B2 c2 d4 | c4 F4 G4 B4 | A8 G4 d4 | A4 c6 B2 A2 G2 | F6 E2 D8- | D16 | %54
w: ia. Al-|* le- lu- * * * *|ia. Al- le- lu-||ia. Al- le- lu- *|||
 !fermata!G16 || z16 | D8 G4 d4- | d4 A4 B6 A2 | G12 B4 | A8 z4 D4 | G4 d8 A4 | c6 B2 A2 G2 F4 | %62
w: ia.||Re- sur- re-|* xit si- cut|di- *|xit, re-|sur- re- xit,|si- cut di- * *|
 C8 z8 | z4 c4 d4 f4- | f4 B4 d8 | A4 c6 G2 B4- | B4 A4 d8 | c4 c8 B4 | A4 F4 A8 | %69
w: xit,|re- sur- re-|* xit si-|cut di- * *||xit. Al- le-|lu- * ia.|
 z4 D2 E2 F2 D2 F4- | F4 E4 D8- | D8 z4 G2 A2 | B2 G2 B8 A4 | G8 z4 d2 e2 | f2 d2 f8 e4 | d16 | %76
w: Al- le- lu- * *|* * ia.|_ Al- le-|lu- * * *|ia. Al- le-|lu- * * *|ia.|
 z4 A2 B2 c2 A2 c4- | c4 B2 A2 B8- | B8 A8- | A4 D4 | !fermata!A16 || z16 | z2 G2 B2 c2 d4 A2 B2- | %83
w: Al- le- lu- * *||||ia.||O- ra pro no- bis De-|
 B2 AG d4 G8 | B8 A4 A4 | B4 G2 A4 GF G4 | A4 F4 E4 E4 | F4 D4 A6 E2 | ^F2 G4 FE D2 B4 AG | %89
w: * * * * um,|o- ra pro|no- bis De- * * *|um, o- ra pro|no- bis De- *|* * * * um, De- * *|
 F2 D2 F2 G2 A4 A,4 | z4 D4 F4 G4 | A4 D2 B4 A2 G4 | F8 z8 | z4 A4 B4 c4 | d8 A4 c4 | B8 A8 | %96
w: um, o- ra pro no- bis,|o- ra pro|no- bis De- * *|um,|o- ra pro|no- bis De-|* um.|
 A4 A4 F8 | F8 z4 B4- | B4 B4 A8 | G4 F2 G2 A2 A4 c2 | B2 G2 B2 AG F8 | z2 c4 d2 c2 A2 d2 cB | %102
w: Al- le- lu-|ia. Al-|* le- lu-|* * * ia. Al- le-|lu- * * * * ia.|Al- le- lu- * * * *|
 A4 F2 F2 c4 G4 | z2 d4 f2 e2 c2 f2 ed | c12 z2 G2- | G2 B2 A2 F2 c6 A2 | G8 z2 D4 F2 | %107
w: ia. Al- le- lu- ia.|Al- le- lu- * * * *|ia. Al-|* le- lu- * * *|ia. Al- le-|
 E2 C2 F2 ED C8 | z4 z2 A4 c2 B2 G2 | A8 G4 F2 G2 | A16 | !fermata!D16 |] %112
w: lu- * * * * ia.|Al- le- lu- *|||ia.|

